build/svg/cmd/32/autoformat.svg

<?xml version="1.0" encoding="UTF-8" standalone="no"?>
<svg
   xmlns:dc="http://purl.org/dc/elements/1.1/"
   xmlns:cc="http://creativecommons.org/ns#"
   xmlns:rdf="http://www.w3.org/1999/02/22-rdf-syntax-ns#"
   xmlns:svg="http://www.w3.org/2000/svg"
   xmlns="http://www.w3.org/2000/svg"
   xmlns:sodipodi="http://sodipodi.sourceforge.net/DTD/sodipodi-0.dtd"
   xmlns:inkscape="http://www.inkscape.org/namespaces/inkscape"
   viewBox="0 0 32 32"
   version="1.1"
   id="svg4"
   sodipodi:docname="autoformat.svg"
   inkscape:version="0.92.4 (5da689c313, 2019-01-14)"
   inkscape:export-filename="/home/jupiter007/Libreoffice yaru theme fullcolor/build/cmd/32/autoformat.png"
   inkscape:export-xdpi="95"
   inkscape:export-ydpi="95">
  <metadata
     id="metadata10">
    <rdf:RDF>
      <cc:Work
         rdf:about="">
        <dc:format>image/svg+xml</dc:format>
        <dc:type
           rdf:resource="http://purl.org/dc/dcmitype/StillImage" />
      </cc:Work>
    </rdf:RDF>
  </metadata>
  <defs
     id="defs8" />
  <sodipodi:namedview
     pagecolor="#ffffff"
     bordercolor="#666666"
     borderopacity="1"
     objecttolerance="10"
     gridtolerance="10"
     guidetolerance="10"
     inkscape:pageopacity="0"
     inkscape:pageshadow="2"
     inkscape:window-width="1920"
     inkscape:window-height="1011"
     id="namedview6"
     showgrid="true"
     inkscape:zoom="10.429825"
     inkscape:cx="6.5145722"
     inkscape:cy="10.722406"
     inkscape:window-x="0"
     inkscape:window-y="32"
     inkscape:window-maximized="1"
     inkscape:current-layer="svg4">
    <inkscape:grid
       type="xygrid"
       id="grid827" />
  </sodipodi:namedview>
  <path
     d="M 23.777344,3.9785158 3.9785158,23.777344 8.2226558,28.021484 28.021483,8.2226563 Z"
     id="path825"
     inkscape:connector-curvature="0"
     style="fill:#000000;fill-opacity:1;opacity:0.6" />
  <path
     d="M 6.25,4 5.453125,5.453125 4,6.25 5.453125,7.046875 6.25,8.5 7.046875,7.046875 8.5,6.25 7.046875,5.453125 Z"
     id="path823"
     style="fill:#808080;fill-opacity:1" />
  <path
     d="M 13.75,4 12.953125,5.453125 11.5,6.25 12.953125,7.046875 13.75,8.5 14.546875,7.046875 16,6.25 14.546875,5.453125 Z"
     id="path821"
     style="fill:#808080;fill-opacity:1" />
  <path
     d="m 23.777344,5.3925787 2.830078,2.8300783 -5.658216,5.656236 -2.828125,-2.828124 z"
     id="path819"
     style="fill:#ffffff"
     inkscape:connector-curvature="0" />
  <path
     d="M 9.25,10 8.453125,11.453125 7,12.25 8.453125,13.046875 9.25,14.5 10.046875,13.046875 11.5,12.25 10.046875,11.453125 Z"
     id="path2"
     style="fill:#808080;fill-opacity:1" />
  <rect
     style="opacity:1;fill:#fa9381;fill-opacity:1;stroke:none;stroke-width:2;stroke-linecap:round;stroke-linejoin:round;stroke-miterlimit:4;stroke-dasharray:none;stroke-opacity:1"
     id="rect829"
     width="17"
     height="4"
     x="-13"
     y="20.627417"
     transform="rotate(-45)" />
</svg>

<svg xmlns="http://www.w3.org/2000/svg" viewBox="0 0 32 32"><path d="M23.777 3.979L3.98 23.777l4.244 4.244L28.02 8.223z" opacity=".6"/><path d="M6.25 4l-.797 1.453L4 6.25l1.453.797L6.25 8.5l.797-1.453L8.5 6.25l-1.453-.797zM13.75 4l-.797 1.453-1.453.797 1.453.797.797 1.453.797-1.453L16 6.25l-1.453-.797z" fill="gray"/><path d="M23.777 5.393l2.83 2.83-5.658 5.656-2.828-2.828z" fill="#fff"/><path d="M9.25 10l-.797 1.453L7 12.25l1.453.797.797 1.453.797-1.453 1.453-.797-1.453-.797z" fill="gray"/><path fill="#fa9381" d="M5.393 23.778l12.02-12.02 2.83 2.827L8.221 26.606z"/></svg>
